X:1
T:Boot Dance
L:1/8
Q:1/8=232
M:4/4
I:linebreak $
K:C
V:1 treble 
V:1
|: A2 AB cB Ac | BA ^GB A2 A2 | c2 cd ed ce | dc Bd c2 c2 | A2 AB cB Ac | _B2 Bd fd Bd |$ %6
 ec Ac ed cB | Ac ea A2 A2 ::[K:A] A2 aA gA fA | eA dA cA cd | ec Ac ed cA |$ cB Ac BE =FE | %12
 A2 aA gA fA | eA dA cA cd | ec Ac ed cB | Ac ea A2 A2 :| %16
